packages/components/src/telekom/icons/weather/moon-snow/selected.svg

<?xml version="1.0" encoding="UTF-8"?>
<svg width="24px" height="24px" viewBox="0 0 24 24" version="1.1" xmlns="http://www.w3.org/2000/svg" xmlns:xlink="http://www.w3.org/1999/xlink">
    <title>icon/weather/moon-snow/selected</title>
    <g id="icon/weather/moon-snow/selected" stroke="none" stroke-width="1" fill="none" fill-rule="evenodd">
        <path d="M6.6811,18.62145 L7.7201,19.22145 L7.0396,20.39995 L8.4006,20.39995 L8.4006,21.59995 L7.0396,21.59995 L7.7201,22.77845 L6.6811,23.37845 L6.0006,22.19995 L5.3201,23.37845 L4.2811,22.77845 L4.9611,21.59995 L3.6006,21.59995 L3.6006,20.39995 L4.9611,20.39995 L4.2811,19.22145 L5.3201,18.62145 L6.0006,19.79995 L6.6811,18.62145 Z M11.8811,15.02145 L12.9201,15.62145 L12.2396,16.79995 L13.6006,16.79995 L13.6006,17.99995 L12.2396,17.99995 L12.9201,19.17845 L11.8811,19.77845 L11.2006,18.59995 L10.5201,19.77845 L9.4811,19.17845 L10.1611,17.99995 L8.8006,17.99995 L8.8006,16.79995 L10.1611,16.79995 L9.4811,15.62145 L10.5201,15.02145 L11.2006,16.19995 L11.8811,15.02145 Z M10.1081,5.94995 C12.4621,5.94995 14.5356,7.41695 15.3411,9.62395 C16.7221,10.35145 17.6021,11.79845 17.6021,13.37695 C17.6021,15.10591 16.5662216,16.5924892 15.0876803,17.2501076 L14.9006,17.32795 L14.9006,15.84645 C14.9006,15.5291167 14.7504765,15.2335117 14.5000952,15.046022 L14.4016,14.98095 L11.7001,13.41645 C11.429725,13.259825 11.1038422,13.2398641 10.8192553,13.3569021 L10.7001,13.41545 L8.0011,14.96995 C7.72598889,15.1286167 7.54450741,15.4073821 7.50757462,15.7184548 L7.5006,15.83645 L7.5006,17.59345 L6.5051,17.01195 C6.2321,16.8527 5.90282656,16.8327938 5.61609316,16.9522313 L5.4961,17.01195 L4.4836,17.60345 L4.0406,17.60295 C2.0166,17.49545 0.4021,15.80895 0.4021,13.74595 C0.4021,12.34645 1.1571,11.06245 2.3541,10.38045 C2.4561,8.55845 3.9616,7.10745 5.7971,7.10745 C6.0676,7.10745 6.3366,7.14045 6.6026,7.20545 C7.5956,6.39345 8.8291,5.94995 10.1081,5.94995 Z M18.1771,0.50545 C19.0666,0.27145 19.9621,0.27545 20.7981,0.47495 C18.8731,1.40045 17.8096,3.58595 18.3726,5.72895 C19.0046,8.13545 21.4486,9.57995 23.8551,8.98995 C23.1501,9.92345 22.1411,10.63845 20.9216,10.95895 C20.0096,11.19845 19.0911,11.18895 18.2371,10.97395 C17.8056,10.09545 17.1466,9.33345 16.2986,8.78995 C15.8136,7.70245 15.0731,6.79195 14.1616,6.11395 C13.9791,3.57045 15.6206,1.17645 18.1771,0.50545 Z" id="Shape" fill="#262626"></path>
    </g>
</svg>

<svg width="24" height="24" xmlns="http://www.w3.org/2000/svg"><path d="M6.681 18.621l1.04.6L7.04 20.4H8.4v1.2H7.04l.68 1.178-1.039.6-.68-1.178-.68 1.178-1.04-.6.68-1.178h-1.36v-1.2h1.36l-.68-1.179 1.04-.6L6 19.8l.68-1.179zm5.2-3.6l1.04.6-.681 1.179h1.36V18h-1.36l.68 1.178-1.039.6-.68-1.178-.68 1.178-1.04-.6.68-1.178h-1.36v-1.2h1.36l-.68-1.179 1.04-.6.68 1.179.68-1.179zM10.108 5.95a5.56 5.56 0 015.233 3.674 4.25 4.25 0 012.261 3.753 4.24 4.24 0 01-2.514 3.873l-.187.078v-1.482a1 1 0 00-.4-.8l-.1-.065-2.7-1.565a1 1 0 00-.882-.06l-.119.06-2.699 1.554a1 1 0 00-.493.748l-.007.118v1.757l-.996-.581a1 1 0 00-.889-.06l-.12.06-1.012.591H4.04a3.858 3.858 0 01-3.639-3.857c0-1.4.755-2.684 1.952-3.366.102-1.822 1.608-3.273 3.443-3.273.27 0 .54.033.806.098a5.53 5.53 0 013.505-1.255zm8.07-5.445a5.37 5.37 0 012.62-.03 4.548 4.548 0 003.057 8.515 5.377 5.377 0 01-2.933 1.969c-.912.24-1.83.23-2.685.015A5.424 5.424 0 0016.3 8.79a6.749 6.749 0 00-2.137-2.676A5.403 5.403 0 0118.177.505z" fill="#000" fill-rule="evenodd"/></svg>
